X:1
T:Beautiful Eden Bells
T:Beautiful Eden Bells
T:James Milton Black
T:Frances Jane (Fanny) Crosby, 1898
T:Public Domain Courtesy of the Cyber Hymnal™
C:James Milton Black
Z:Public Domain
Z:Courtesy of the Cyber Hymnal™
%%score ( 1 2 ) ( 3 4 )
L:1/8
Q:1/4=102
M:6/8
K:Eb
V:1 treble 
V:2 treble 
V:3 bass 
V:4 bass 
V:1
 [EG][EG][EG] [GB]2 [FA] | [EG]2 [DF] E3 | [B,D][DF][DF] [DF][DF][DF] | E2 [EG] [EG]3 | %4
w: 1.~Beau- ti- ful bells of|E- den fair,|Chim- ing at eve on the|calm, still air,|
w: 2.~Beau- ti- ful bells of|E- den bright,|Mur- mur- ing on thro’ the|hush of night,|
w: 3.~Beau- ti- ful bells of|E- den chime,|Soft- ly they breathe in their|tones sub- lime;|
 [EG][EG][EG] [GB][GB][GB] | [B_d]2 [Bd] [Ac]3 | [Ac][Ac][Ac] [GB][GB][FA] | [EG]2 [DF] E3 || %8
w: Lift- ing the soul with its|toil op- pressed,|In- to the vales of the|pure and blessed.|
w: Tell- ing my soul of the|friends I love,|Ga- thered and safe in their|home a- bove.|
w: E- cho of joy from a|white- robed throng,|Prais- ing the Lord in a|world of song.|
"^Refrain" [GB]3 [GB][Ac][GB] | A3- [FA]2 [FA] | [FA][FA][FA]"^riten." d2 [Ac] | B3- [GB]3 | %12
w: Sweet, beau- ti- ful|bells; That oft|* in a dream I|hear, Wel-|
w: ||||
w: ||||
 [EG][EG][EG] [GB][GB][GB] | [Ge]2 [Bd] !fermata![Ac]3 |"^riten." [ce][Bd][Ac] [GB][GB][FA] | %15
w: * come the mes- sage they|bring to me,|O- ver the waves of the|
w: |||
w: |||
 [EG]2 [DF] E3 |] %16
w: crys- tal sea.|
w: |
w: |
V:2
 x6 | x3 E3 | x6 | E2 x4 | x6 | x6 | x6 | x3 E3 || x6 | F2 F x3 | x3 (FF) x | G2 G x3 | x6 | x6 | %14
 x6 | x3 E3 |] %16
V:3
 [E,B,][E,B,][E,B,] [E,B,]2 [A,,C] | [B,,B,]2 [B,,A,] [E,G,]3 | %2
w: ~ ~ ~ ~ ~|~ ~ ~|
 [B,,F,][B,,B,][B,,B,] [B,,B,][B,,B,][B,,B,] | [E,G,]2 [E,B,] [E,B,]3 | %4
w: ~ ~ ~ ~ ~ ~|~ ~ ~|
 [E,B,][E,B,][E,B,] [E,E][E,E][E,E] | [E,E]2 [G,E] [A,E]3 | [A,E][A,E][A,E] [B,E][B,E]B, | %7
w: ~ ~ ~ ~ ~ ~|~ ~ ~|~ ~ ~ ~ ~ ~|
 [B,,B,]2 [B,,A,] [E,G,]3 || [E,E]3 [E,E][E,E][E,E] | [B,,D]2 [B,,D] [B,,D]2 [B,,D] | %10
w: ~ ~ ~|~ ~ ~ ~|~ so dear; ~|
 [B,,D][B,,D][B,,D] [B,,B,][B,,B,][B,,D] | [E,E]2 [E,E] [E,E]3 | %12
w: ~ ~ ~ ~ in a|dream I hear,|
 [E,B,][E,B,][E,B,] [E,E][E,E][E,E] | [E,B,]2 [G,E] !fermata![A,E]3 | %14
w: ||
 [A,E][A,E][A,E] [B,E][B,E]B, | [B,,B,]2 [B,,A,] [E,G,]3 |] %16
w: ||
V:4
 x6 | x6 | x6 | x6 | x6 | x6 | x5 B, | x6 || x6 | x6 | x6 | x6 | x6 | x6 | x5 B, | x6 |] %16

